img/whatsup-white.svg

<svg width="19" height="19" viewBox="0 0 19 19" fill="none" xmlns="http://www.w3.org/2000/svg">
<path d="M0 10.0215C0 9.69574 0 9.36953 0 9.04381C0.0115988 8.97956 0.0242061 8.91581 0.0337877 8.85157C0.0937987 8.44666 0.129099 8.03628 0.216846 7.63735C0.711559 5.39768 1.88455 3.5679 3.73833 2.1973C6.0137 0.514933 8.573 -0.0408758 11.3572 0.53336C13.6023 0.996534 15.4284 2.15696 16.8243 3.94939C18.3311 5.88476 18.9584 8.08857 18.7229 10.514C18.5323 12.4728 17.7648 14.204 16.446 15.6826C14.9911 17.3142 13.1757 18.3302 11.0042 18.7112C10.6507 18.7735 10.2926 18.8078 9.93661 18.8551C9.59419 18.8551 9.25228 18.8551 8.90986 18.8551C8.6436 18.8257 8.37632 18.8023 8.11106 18.766C6.77519 18.5827 5.53412 18.1409 4.39643 17.4243C4.27893 17.3501 4.17807 17.3321 4.04141 17.376C2.96928 17.7211 1.89463 18.0578 0.82099 18.3969C0.761988 18.4154 0.702481 18.4328 0.619273 18.4577C0.993963 17.3555 1.35504 16.2882 1.72267 15.2234C1.77209 15.0805 1.76604 14.9734 1.67325 14.8429C0.887053 13.7368 0.379733 12.5141 0.147758 11.1829C0.0801827 10.7994 0.0484122 10.4089 0 10.0215ZM12.451 14.8166C12.4545 14.8026 12.4581 14.7882 12.4616 14.7742C12.5715 14.7677 12.6825 14.7707 12.7904 14.7533C12.9407 14.7284 13.093 14.702 13.2357 14.6522C14.5569 14.192 15.0068 13.567 15.0426 12.3508C15.0481 12.166 14.978 12.0415 14.8081 11.9613C14.1091 11.6321 13.4142 11.2939 12.7122 10.9707C12.3471 10.8024 12.1353 10.8716 11.8923 11.1968C11.7147 11.4344 11.5398 11.6744 11.3552 11.9065C11.0662 12.2706 10.865 12.3194 10.4343 12.1456C8.86347 11.5131 7.70511 10.4209 6.83671 9.00347C6.71921 8.81222 6.73434 8.63791 6.87958 8.47256C7.04751 8.28132 7.21342 8.08758 7.38942 7.9038C7.67989 7.6005 7.751 7.29072 7.55735 6.88881C7.23763 6.22642 6.97338 5.53813 6.67231 4.86628C6.62743 4.76617 6.52405 4.64615 6.42672 4.62324C5.93403 4.5057 5.41965 4.4798 5.00915 4.81299C4.09688 5.55257 3.81347 6.54118 3.98745 7.66773C4.08024 8.27086 4.32382 8.82666 4.64858 9.34064C5.36619 10.4767 6.2124 11.5086 7.21695 12.4145C8.36876 13.4539 9.72178 14.1203 11.2059 14.5441C11.6134 14.6612 12.0355 14.7274 12.451 14.8166Z" fill="white"/>
</svg>

<svg width="19" height="19" fill="none" xmlns="http://www.w3.org/2000/svg"><path d="M0 10.021v-.977c.012-.064.024-.128.034-.192.06-.405.095-.816.183-1.215.495-2.24 1.668-4.07 3.521-5.44C6.014.515 8.573-.04 11.358.533c2.244.464 4.07 1.624 5.466 3.416 1.507 1.936 2.134 4.14 1.899 6.565-.19 1.959-.958 3.69-2.277 5.169-1.455 1.631-3.27 2.647-5.442 3.028-.353.063-.711.097-1.067.144H8.91c-.266-.03-.534-.053-.799-.089a9.246 9.246 0 01-3.715-1.342.38.38 0 00-.355-.048c-1.072.345-2.146.682-3.22 1.02-.059.02-.119.037-.202.062.375-1.102.736-2.17 1.104-3.235.05-.143.043-.25-.05-.38a8.874 8.874 0 01-1.525-3.66c-.068-.384-.1-.774-.148-1.162zm12.451 4.796l.01-.043c.11-.006.221-.003.33-.02.15-.026.302-.052.445-.102 1.32-.46 1.77-1.085 1.807-2.301.005-.185-.065-.31-.235-.39-.699-.329-1.394-.667-2.096-.99-.365-.169-.577-.1-.82.226-.177.237-.352.477-.537.71-.289.364-.49.412-.92.239-1.572-.633-2.73-1.725-3.598-3.143-.118-.19-.103-.365.043-.53.168-.192.333-.385.51-.57.29-.302.361-.612.167-1.014-.32-.663-.584-1.35-.885-2.023-.045-.1-.148-.22-.245-.243-.493-.117-1.007-.143-1.418.19-.912.74-1.196 1.728-1.022 2.855.093.603.337 1.159.662 1.673a14.612 14.612 0 002.568 3.074c1.152 1.039 2.505 1.705 3.989 2.13.407.116.83.182 1.245.272z" fill="#fff"/></svg>
